symbols/web/power_settings_new/materialsymbolsrounded/power_settings_new_wght600_48px.svg

<svg xmlns="http://www.w3.org/2000/svg" height="48" width="48"><path d="M24 26.1q-.85 0-1.425-.575Q22 24.95 22 24.1V7.05q0-.8.575-1.4.575-.6 1.425-.6.85 0 1.425.6.575.6.575 1.4V24.1q0 .85-.575 1.425-.575.575-1.425.575Zm0 16.7q-3.9 0-7.3-1.475t-5.925-4q-2.525-2.525-4-5.925T5.3 24.1q0-3.5 1.3-6.725 1.3-3.225 3.75-5.775.55-.65 1.45-.725.9-.075 1.5.525t.55 1.4q-.05.8-.55 1.45-1.9 2-2.975 4.525Q9.25 21.3 9.25 24.1q0 6.15 4.3 10.45 4.3 4.3 10.45 4.3 6.15 0 10.45-4.3 4.3-4.3 4.3-10.45 0-2.8-1.05-5.325-1.05-2.525-2.95-4.575-.5-.65-.525-1.45-.025-.8.575-1.35.65-.65 1.55-.525t1.55.825q2.35 2.55 3.6 5.75t1.25 6.65q0 3.9-1.5 7.3t-4.025 5.925q-2.525 2.525-5.925 4T24 42.8Z"/></svg>

<svg xmlns="http://www.w3.org/2000/svg" height="48" width="48"><path d="M24 26.1Q23.15 26.1 22.575 25.525Q22 24.95 22 24.1V7.05Q22 6.25 22.575 5.65Q23.15 5.05 24 5.05Q24.85 5.05 25.425 5.65Q26 6.25 26 7.05V24.1Q26 24.95 25.425 25.525Q24.85 26.1 24 26.1ZM24 42.8Q20.1 42.8 16.7 41.325Q13.3 39.85 10.775 37.325Q8.25 34.8 6.775 31.4Q5.3 28 5.3 24.1Q5.3 20.6 6.6 17.375Q7.9 14.15 10.35 11.6Q10.9 10.95 11.8 10.875Q12.7 10.8 13.3 11.4Q13.9 12 13.85 12.8Q13.8 13.6 13.3 14.25Q11.4 16.25 10.325 18.775Q9.25 21.3 9.25 24.1Q9.25 30.25 13.55 34.55Q17.85 38.85 24 38.85Q30.15 38.85 34.45 34.55Q38.75 30.25 38.75 24.1Q38.75 21.3 37.7 18.775Q36.65 16.25 34.75 14.2Q34.25 13.55 34.225 12.75Q34.2 11.95 34.8 11.4Q35.45 10.75 36.35 10.875Q37.25 11 37.9 11.7Q40.25 14.25 41.5 17.45Q42.75 20.65 42.75 24.1Q42.75 28 41.25 31.4Q39.75 34.8 37.225 37.325Q34.7 39.85 31.3 41.325Q27.9 42.8 24 42.8Z"/></svg>
